build/img/svg/service4.svg

<svg width="44" height="48" viewBox="0 0 44 48" fill="none" xmlns="http://www.w3.org/2000/svg">
<g clip-path="url(#clip0)">
<path fill-rule="evenodd" clip-rule="evenodd" d="M43.5945 15.9319C43.341 13.4809 41.5161 10.2638 39.5899 8.78298C39.5899 8.78298 36.6498 6.58723 33 4.44255C29.3502 2.24681 26.0046 0.765957 26.0046 0.765957C24.8894 0.255319 23.4194 0 22 0C20.53 0 19.0599 0.255319 17.9954 0.765957C17.9954 0.765957 14.7005 2.24681 11 4.44255C7.35023 6.6383 4.41014 8.78298 4.41014 8.78298C2.43318 10.2638 0.658986 13.4809 0.40553 15.9319C0.40553 15.9319 0 19.6085 0 24C0 28.3404 0.40553 32.0681 0.40553 32.0681C0.658986 34.5191 2.48387 37.7362 4.41014 39.217C4.41014 39.217 7.35023 41.4128 11 43.6085C14.6498 45.8043 17.9954 47.2851 17.9954 47.2851C19.1106 47.7957 20.5806 48.0511 22 48.0511C23.47 48.0511 24.9401 47.7957 26.0046 47.2851C26.0046 47.2851 29.2995 45.8043 33 43.6085C36.6498 41.4128 39.5899 39.217 39.5899 39.217C41.5668 37.7362 43.341 34.5191 43.5945 32.0681C43.5945 32.0681 44 28.3915 44 24C44 19.6596 43.5945 15.9319 43.5945 15.9319ZM41.5668 31.8128C41.3641 33.7532 39.8433 36.4085 38.3733 37.5319C38.3226 37.5319 35.4839 39.6766 31.9862 41.7702C28.4885 43.8638 25.2442 45.3447 25.1935 45.3447C24.3825 45.7021 23.2166 45.9064 22 45.9064C20.7834 45.9064 19.6175 45.7021 18.8064 45.3447C18.7558 45.3447 15.5622 43.8638 12.0138 41.7702C8.51613 39.6766 5.62673 37.5319 5.62673 37.5319C4.10599 36.4085 2.63594 33.7021 2.43318 31.8128C2.38249 31.8128 2.02765 28.1872 2.02765 24C2.02765 19.8128 2.38249 16.1872 2.38249 16.1872C2.58525 14.2468 4.10599 11.5915 5.57604 10.4681C5.62673 10.4681 8.46544 8.3234 11.9631 6.22979C15.4608 4.13617 18.7051 2.65532 18.7558 2.65532C19.6175 2.24681 20.7834 2.04255 22 2.04255C23.2166 2.04255 24.3825 2.24681 25.1935 2.60426C25.2442 2.60426 28.4378 4.08511 31.9862 6.17872C35.4839 8.27234 38.3733 10.417 38.3733 10.417C39.894 11.5404 41.3641 14.2468 41.5668 16.1362C41.5668 16.1872 41.9217 19.7617 41.9217 23.9489C41.9723 28.1872 41.5668 31.8128 41.5668 31.8128Z" fill="#65B94D"/>
<path fill-rule="evenodd" clip-rule="evenodd" d="M31.7327 16.8511V14.6553C31.7327 13.7873 31.3778 13.0213 30.7696 12.5107C30.1106 12 29.2488 11.7958 28.2857 12L12.9262 13.7873C10.3917 14.0936 9.88477 15.2681 9.88477 16.2383V31.6085C9.88477 33.0894 11.1014 34.3149 12.5714 34.3149H31.5299C33 34.3149 34.2166 33.0894 34.2166 31.6085V19.5575C34.1659 18.1277 33.1014 17.0043 31.7327 16.8511ZM32.1382 27.4213C32.0875 27.4213 32.0368 27.4213 31.9355 27.4213H27.1705C26.0553 27.4213 25.1428 26.5022 25.1428 25.3787C25.1428 24.2553 26.0553 23.3362 27.1705 23.3362H31.9355C31.9861 23.3362 32.0368 23.3362 32.1382 23.3362V27.4213ZM13.129 15.8809L28.5898 14.0936C28.6405 14.0936 28.6405 14.0936 28.6912 14.0936C29.0461 13.9915 29.3502 14.0426 29.5023 14.1958C29.6543 14.2979 29.705 14.5022 29.705 14.7575V16.9022H12.5207H12.47H12.4193C12.1152 16.9022 12.0138 16.8 11.8617 16.5447V16.3915C11.8617 16.1873 12.1152 15.983 13.129 15.8809ZM31.4792 32.3745H12.5207C12.1659 32.3745 11.8617 32.0681 11.8617 31.7107V18.8426C12.1152 18.8936 12.3179 18.8936 12.5714 18.8936H31.4792C31.8341 18.8936 32.1382 19.2 32.1382 19.5575V21.3447C32.0875 21.3447 32.0368 21.3447 31.9355 21.3447H27.1705C24.9401 21.3447 23.1152 23.183 23.1152 25.4298C23.1152 27.6766 24.9401 29.5149 27.1705 29.5149H31.9355C31.9861 29.5149 32.0368 29.5149 32.1382 29.5149V31.7617C32.1382 32.0681 31.8341 32.3745 31.4792 32.3745Z" fill="#65B94D"/>
<path d="M27.2213 26.4511C27.8092 26.4511 28.2858 25.971 28.2858 25.3787C28.2858 24.7865 27.8092 24.3064 27.2213 24.3064C26.6333 24.3064 26.1567 24.7865 26.1567 25.3787C26.1567 25.971 26.6333 26.4511 27.2213 26.4511Z" fill="#65B94D"/>
</g>
<defs>
<clipPath id="clip0">
<rect width="44" height="48" fill="white"/>
</clipPath>
</defs>
</svg>

<svg width="44" height="48" fill="none" xmlns="http://www.w3.org/2000/svg"><g clip-path="url(#clip0)" fill="#65B94D"><path fill-rule="evenodd" clip-rule="evenodd" d="M43.594 15.932c-.253-2.451-2.078-5.668-4.004-7.149 0 0-2.94-2.196-6.59-4.34C29.35 2.247 26.005.766 26.005.766 24.889.256 23.419 0 22 0c-1.47 0-2.94.255-4.005.766 0 0-3.295 1.48-6.995 3.677-3.65 2.195-6.59 4.34-6.59 4.34-1.977 1.48-3.75 4.698-4.004 7.149 0 0-.406 3.676-.406 8.068 0 4.34.406 8.068.406 8.068.253 2.451 2.078 5.668 4.004 7.149 0 0 2.94 2.196 6.59 4.392a71.16 71.16 0 006.995 3.676c1.116.51 2.586.766 4.005.766 1.47 0 2.94-.255 4.005-.766 0 0 3.294-1.48 6.995-3.676a88.995 88.995 0 006.59-4.392c1.977-1.48 3.751-4.698 4.004-7.149 0 0 .406-3.676.406-8.068 0-4.34-.406-8.068-.406-8.068zm-2.027 15.88c-.203 1.941-1.724 4.596-3.194 5.72-.05 0-2.89 2.145-6.387 4.238-3.498 2.094-6.742 3.575-6.793 3.575-.81.357-1.976.561-3.193.561s-2.383-.204-3.194-.561c-.05 0-3.244-1.481-6.792-3.575-3.498-2.093-6.387-4.238-6.387-4.238-1.521-1.123-2.991-3.83-3.194-5.72-.05 0-.405-3.625-.405-7.812s.354-7.813.354-7.813c.203-1.94 1.724-4.596 3.194-5.719.05 0 2.89-2.145 6.387-4.238 3.498-2.094 6.742-3.575 6.793-3.575.861-.408 2.027-.612 3.244-.612s2.383.204 3.194.561c.05 0 3.244 1.481 6.792 3.575a87.03 87.03 0 016.387 4.238c1.521 1.123 2.991 3.83 3.194 5.72 0 .05.355 3.625.355 7.812.05 4.238-.355 7.864-.355 7.864z"/><path fill-rule="evenodd" clip-rule="evenodd" d="M31.733 16.851v-2.196c0-.868-.355-1.634-.963-2.144-.66-.511-1.521-.715-2.484-.511l-15.36 1.787c-2.534.307-3.041 1.481-3.041 2.451v15.37c0 1.481 1.216 2.707 2.686 2.707H31.53c1.47 0 2.687-1.226 2.687-2.706V19.556a2.796 2.796 0 00-2.484-2.706zm.405 10.57h-4.967a2.041 2.041 0 01-2.028-2.042 2.04 2.04 0 012.027-2.043h4.968v4.085zM13.13 15.881l15.46-1.787h.102c.355-.102.66-.051.811.102.152.102.203.306.203.562v2.144H12.42c-.305 0-.406-.102-.558-.357v-.154c0-.204.253-.408 1.267-.51zm18.35 16.493H12.521a.674.674 0 01-.66-.663V18.843c.254.05.457.05.71.05H31.48c.355 0 .66.307.66.665v1.787h-4.97c-2.23 0-4.056 1.838-4.056 4.085s1.825 4.085 4.056 4.085h4.967v2.247c0 .306-.304.612-.659.612z"/><path d="M27.221 26.451c.588 0 1.065-.48 1.065-1.072 0-.593-.477-1.073-1.065-1.073s-1.064.48-1.064 1.073c0 .592.476 1.072 1.064 1.072z"/></g><defs><clipPath id="clip0"><path fill="#fff" d="M0 0h44v48H0z"/></clipPath></defs></svg>
